icons/line/folder-add.svg

<svg width="24" height="24" viewBox="0 0 24 24" fill="none" xmlns="http://www.w3.org/2000/svg">
<path fill-rule="evenodd" clip-rule="evenodd" d="M4 6C4 5.44772 4.44772 5 5 5H8.92963C9.26399 5 9.57622 5.1671 9.76168 5.4453L10.5742 6.6641C11.1306 7.4987 12.0673 8 13.0704 8H19C19.5523 8 20 8.44772 20 9V18C20 18.5523 19.5523 19 19 19H5C4.44772 19 4 18.5523 4 18V6ZM5 3C3.34315 3 2 4.34315 2 6V18C2 19.6569 3.34315 21 5 21H19C20.6569 21 22 19.6569 22 18V9C22 7.34315 20.6569 6 19 6H13.0704C12.736 6 12.4238 5.8329 12.2383 5.5547L11.4258 4.3359C10.8694 3.5013 9.93269 3 8.92963 3H5ZM13 11C13 10.4477 12.5523 10 12 10C11.4477 10 11 10.4477 11 11V13H9C8.44772 13 8 13.4477 8 14C8 14.5523 8.44772 15 9 15H11V17C11 17.5523 11.4477 18 12 18C12.5523 18 13 17.5523 13 17V15H15C15.5523 15 16 14.5523 16 14C16 13.4477 15.5523 13 15 13H13V11Z" fill="currentColor"/>
</svg>

<svg width="24" height="24" fill="none" xmlns="http://www.w3.org/2000/svg"><path fill-rule="evenodd" clip-rule="evenodd" d="M4 6a1 1 0 011-1h3.93a1 1 0 01.832.445l.812 1.22A3 3 0 0013.07 8H19a1 1 0 011 1v9a1 1 0 01-1 1H5a1 1 0 01-1-1V6zm1-3a3 3 0 00-3 3v12a3 3 0 003 3h14a3 3 0 003-3V9a3 3 0 00-3-3h-5.93a1 1 0 01-.832-.445l-.812-1.22A3 3 0 008.93 3H5zm8 8a1 1 0 10-2 0v2H9a1 1 0 100 2h2v2a1 1 0 102 0v-2h2a1 1 0 100-2h-2v-2z" fill="currentColor"/></svg>
